svg/fluentui-system-icons/ic_fluent_split_horizontal_48_regular.svg

<svg width="48" height="48" viewBox="0 0 48 48" fill="none" xmlns="http://www.w3.org/2000/svg">
<path d="M42.75 25.5C43.4404 25.5 44 24.9404 44 24.25C44 23.5596 43.4404 23 42.75 23L5.25 23C4.55964 23 4 23.5596 4 24.25C4 24.9404 4.55964 25.5 5.25 25.5L42.75 25.5ZM10.5 39.75V27.5H8V39.75C8 42.0972 9.90279 44 12.25 44H35.75C38.0972 44 40 42.0972 40 39.75V27.5H37.5V39.75C37.5 40.7165 36.7165 41.5 35.75 41.5H12.25C11.2835 41.5 10.5 40.7165 10.5 39.75ZM40 21V8.25C40 5.90279 38.0972 4 35.75 4L12.25 4C9.90279 4 8 5.90279 8 8.25V21H10.5V8.25C10.5 7.2835 11.2835 6.5 12.25 6.5L35.75 6.5C36.7165 6.5 37.5 7.2835 37.5 8.25V21H40Z" fill="#212121"/>
</svg>

<svg xmlns="http://www.w3.org/2000/svg" width="48" height="48"><path d="M42.75 25.5a1.25 1.25 0 1 0 0-2.5H5.25a1.25 1.25 0 1 0 0 2.5h37.5ZM10.5 39.75V27.5H8v12.25A4.25 4.25 0 0 0 12.25 44h23.5A4.25 4.25 0 0 0 40 39.75V27.5h-2.5v12.25a1.75 1.75 0 0 1-1.75 1.75h-23.5a1.75 1.75 0 0 1-1.75-1.75ZM40 21V8.25A4.25 4.25 0 0 0 35.75 4h-23.5A4.25 4.25 0 0 0 8 8.25V21h2.5V8.25c0-.966.784-1.75 1.75-1.75h23.5c.967 0 1.75.784 1.75 1.75V21H40Z"/></svg>
